assets/icons/network/transmit-receive.svg

<?xml version="1.0" encoding="UTF-8" standalone="no"?>
<svg
   viewBox="0 0 24 24"
   height="24"
   id="svg7384"
   version="1.1"
   width="24"
   sodipodi:docname="send-receive.svg"
   inkscape:version="1.2 (1:1.2.1+202207142221+cd75a1ee6d)"
   xmlns:inkscape="http://www.inkscape.org/namespaces/inkscape"
   xmlns:sodipodi="http://sodipodi.sourceforge.net/DTD/sodipodi-0.dtd"
   xmlns="http://www.w3.org/2000/svg"
   xmlns:svg="http://www.w3.org/2000/svg"
   xmlns:rdf="http://www.w3.org/1999/02/22-rdf-syntax-ns#"
   xmlns:cc="http://creativecommons.org/ns#"
   xmlns:dc="http://purl.org/dc/elements/1.1/">
  <sodipodi:namedview
     id="namedview22"
     pagecolor="#ffffff"
     bordercolor="#666666"
     borderopacity="1.0"
     inkscape:pageshadow="2"
     inkscape:pageopacity="0.0"
     inkscape:pagecheckerboard="0"
     showgrid="true"
     inkscape:zoom="39.59783"
     inkscape:cx="9.5586046"
     inkscape:cy="12.197638"
     inkscape:window-width="1920"
     inkscape:window-height="1043"
     inkscape:window-x="0"
     inkscape:window-y="0"
     inkscape:window-maximized="1"
     inkscape:current-layer="svg7384"
     inkscape:showpageshadow="2"
     inkscape:deskcolor="#d1d1d1">
    <inkscape:grid
       type="xygrid"
       id="grid463" />
  </sodipodi:namedview>
  <metadata
     id="metadata20854">
    <rdf:RDF>
      <cc:Work
         rdf:about="">
        <dc:format>image/svg+xml</dc:format>
        <dc:type
           rdf:resource="http://purl.org/dc/dcmitype/StillImage" />
      </cc:Work>
    </rdf:RDF>
  </metadata>
  <defs
     id="defs7386">
    <linearGradient
       id="linearGradient5606"
       inkscape:swatch="solid">
      <stop
         id="stop5608"
         offset="0"
         style="stop-color:#000000;stop-opacity:1;" />
    </linearGradient>
    <linearGradient
       id="linearGradient4526"
       inkscape:swatch="solid">
      <stop
         id="stop4528"
         offset="0"
         style="stop-color:#ffffff;stop-opacity:1;" />
    </linearGradient>
    <linearGradient
       id="linearGradient3600-4"
       inkscape:swatch="gradient">
      <stop
         id="stop3602-7"
         offset="0"
         style="stop-color:#f4f4f4;stop-opacity:1" />
      <stop
         id="stop3604-6"
         offset="1"
         style="stop-color:#dbdbdb;stop-opacity:1" />
    </linearGradient>
  </defs>
  <path
     id="path571"
     style="color:#000000;fill:#808080;-inkscape-stroke:none"
     d="m 14.601562,2.0039062 -0.392578,0.5019532 c 0,0 -0.7875,1.0081827 -4.255859,5.6972656 l -0.5898438,0.796875 h 2.6367188 v 7 h 1.648438 c -2.106156,2.836714 -3.126984,4.190787 -3.25,4.349609 -0.122878,-0.158524 -1.1452498,-1.512325 -3.2519536,-4.349609 h 1.8535156 v -6 h -1 v 5 h -2.84375 l 0.5898438,0.796875 c 3.4683757,4.689108 4.2578122,5.697266 4.2578122,5.697266 l 0.394532,0.501953 0.392578,-0.501953 c 0,0 0.7875,-1.008183 4.255859,-5.697266 l 0.589844,-0.796875 h -2.636719 v -7 h -1.648438 c 2.106155,-2.8367142 3.126983,-4.1907857 3.25,-4.3496094 0.122877,0.1585254 1.14525,1.5123253 3.251954,4.3496094 h -1.853516 v 6 h 1 v -5 h 2.84375 l -0.589844,-0.796875 c -3.468375,-4.6891083 -4.257812,-5.6972656 -4.257812,-5.6972656 z"
     sodipodi:nodetypes="ccccccccccccccccccccccccccccccccc" />
</svg>

<svg height="24" width="24" xmlns="http://www.w3.org/2000/svg"><path style="color:#000;fill:gray;-inkscape-stroke:none" d="m14.602 2.004-.393.502s-.788 1.008-4.256 5.697L9.363 9H12v7h1.648a544.288 544.288 0 0 1-3.25 4.35A511.064 511.064 0 0 1 7.146 16H9v-6H8v5H5.156l.59.797c3.468 4.689 4.258 5.697 4.258 5.697l.394.502.393-.502s.788-1.008 4.256-5.697l.59-.797H13V8h-1.648a544.267 544.267 0 0 1 3.25-4.35A511.12 511.12 0 0 1 17.854 8H16v6h1V9h2.844l-.59-.797c-3.468-4.689-4.258-5.697-4.258-5.697z"/></svg>
